;FLAVOR:Marlin
;TIME:5744
;Filament used: 3.56191m
;Layer height: 0.2
;MINX:65.964
;MINY:77.717
;MINZ:0.2
;MAXX:159.606
;MAXY:141.715
;MAXZ:35
;TARGET_MACHINE.NAME:Creality Ender-3 S1
;Generated with Cura_SteamEngine 5.10.1
; Ender 3 S1 Start G-code
; M413 S0 ; Disable power loss recovery
G92 E0 ; Reset Extruder

; Prep surfaces before auto home for better accuracy
M140 S60
M104 S200

G28 ; Home all axes
G1 Z10.0 F3000 ; Move Z Axis up little to prevent scratching of Heat Bed
G1 X0 Y0

M190 S60
M109 S200

G1 X0.1 Y20 Z0.3 F5000.0 ; Move to start position
G1 X0.1 Y200.0 Z0.3 F1500.0 E15 ; Draw the first line
G1 X0.4 Y200.0 Z0.3 F5000.0 ; Move to side a little
G1 X0.4 Y20 Z0.3 F1500.0 E30 ; Draw the second line
G92 E0 ; Reset Extruder
G1 Z2.0 F3000 ; Move Z Axis up little to prevent scratching of Heat Bed
G1 X5 Y20 Z0.3 F5000.0 ; Move over to prevent blob squish

M82 ;absolute extrusion mode
G92 E0
G92 E0
G1 F2400 E-0.8
;LAYER_COUNT:175
;LAYER:0
M107
M204 S2000
G0 F7500 X70.991 Y94.43 Z0.2
M204 S500
;TYPE:SKIRT
G1 F2400 E0
G1 F1500 X71.805 Y93.897 E0.03236
G1 X72.603 Y93.466 E0.06253
G1 X73.594 Y92.985 E0.09916
G1 X103.408 Y79.084 E1.19327
G1 X104.17 Y78.741 E1.22107
G1 X105.09 Y78.377 E1.25397
G1 X106.017 Y78.101 E1.28614
G1 X106.88 Y77.916 E1.3155
G1 X107.773 Y77.782 E1.34553
G1 X109.003 Y77.717 E1.3865
G1 X109.697 Y77.741 E1.4096
G1 X110.432 Y77.812 E1.43416
G1 X111.048 Y77.886 E1.45479
G1 X112.333 Y78.173 E1.49858
G1 X112.759 Y78.305 E1.51342
G1 X113.384 Y78.53 E1.53551
G1 X114.245 Y78.905 E1.56675
G1 X115.117 Y79.38 E1.59977
G1 X115.592 Y79.684 E1.61853
G1 X115.941 Y79.92 E1.63254
G1 X116.689 Y80.477 E1.66356
G1 X117.15 Y80.875 E1.68382
G1 X119.483 Y82.953 E1.78773
G1 X121.436 Y84.588 E1.87245
G1 X123.391 Y86.133 E1.95532
G1 X125.428 Y87.651 E2.03982
G1 X127.484 Y89.093 E2.12334
G1 X129.589 Y90.485 E2.20728
G1 X131.716 Y91.806 E2.29056
G1 X133.877 Y93.065 E2.37374
G1 X136.131 Y94.293 E2.45911
G1 X138.325 Y95.41 E2.541
G1 X140.616 Y96.495 E2.62531
G1 X143.76 Y97.859 E2.7393
G1 X144.576 Y98.196 E2.76866
G1 X144.958 Y98.368 E2.7826
G1 X145.74 Y98.746 E2.81148
G1 X146.516 Y99.208 E2.84152
G1 X147.418 Y99.865 E2.87864
G1 X147.758 Y100.141 E2.8932
G1 X148.46 Y100.764 E2.92442
G1 X149.153 Y101.499 E2.95802
G1 X149.721 Y102.219 E2.98852
G1 X149.96 Y102.556 E3.00226
G1 X150.196 Y102.915 E3.01655
G1 X150.798 Y103.991 E3.05756
G1 X151.802 Y106.119 E3.13582
G1 X152.918 Y108.333 E3.21828
G1 X153.614 Y109.608 E3.2666
G1 X154.334 Y110.96 E3.31754
G1 X154.611 Y111.519 E3.33829
G1 X154.851 Y112.081 E3.35862
G1 X155.806 Y114.586 E3.44779
G1 X156.771 Y116.922 E3.53185
G1 X157.44 Y118.4 E3.58581
G1 X158.033 Y119.746 E3.63473
G1 X158.059 Y119.827 E3.63756
G1 X158.215 Y120.181 E3.65043
G1 X158.47 Y120.902 E3.67586
G1 X158.682 Y121.572 E3.69923
G1 X158.998 Y122.63 E3.73596
G1 X159.191 Y123.324 E3.75992
G1 X159.399 Y124.177 E3.78912
G1 X159.545 Y125.14 E3.82152
G1 X159.606 Y126.111 E3.85388
G1 X159.585 Y127.014 E3.88392
G1 X159.466 Y128.059 E3.9189
G1 X159.229 Y129.167 E3.95658
G1 X159.013 Y129.973 E3.98434
G1 X158.743 Y130.914 E4.0169
G1 X158.368 Y132.118 E4.05884
G1 X158.02 Y132.991 E4.0901
G1 X157.564 Y133.893 E4.12372
G1 X157.049 Y134.717 E4.15604
G1 X156.461 Y135.496 E4.1885
G1 X155.803 Y136.223 E4.22111
G1 X154.978 Y137.053 E4.26003
G1 X153.824 Y138.156 E4.31313
G1 X153.135 Y138.741 E4.34319
G1 X152.281 Y139.345 E4.37798
G1 X151.438 Y139.831 E4.41035
G1 X150.556 Y140.242 E4.44271
G1 X149.697 Y140.555 E4.47312
G1 X148.678 Y140.854 E4.50844
G1 X147.567 Y141.157 E4.54674
G1 X146.758 Y141.366 E4.57453
G1 X146.033 Y141.527 E4.59923
G1 X145.139 Y141.656 E4.62927
G1 X143.972 Y141.715 E4.66814
G1 X143.066 Y141.675 E4.6983
G1 X139.994 Y141.445 E4.80076
G1 X137.462 Y141.333 E4.88506
G1 X134.958 Y141.292 E4.96835
G1 X131.526 Y141.349 E5.08252
G1 X131.262 Y141.303 E5.09143
G1 X130.961 Y141.122 E5.10311
G1 X130.83 Y140.946 E5.11041
G1 X130.704 Y140.616 E5.12216
G1 X130.635 Y140.829 E5.12961
G1 X130.411 Y141.102 E5.14135
G1 X130.059 Y141.263 E5.15423
G1 X129.856 Y141.277 E5.16099
G1 X128.449 Y141.009 E5.20863
G1 X127.961 Y140.88 E5.22542
G1 X126.458 Y140.442 E5.27749
G1 X125.74 Y140.221 E5.30248
G1 X124.826 Y139.892 E5.33479
G1 X124.005 Y139.515 E5.36483
G1 X123.133 Y139.017 E5.39823
G1 X122.594 Y138.655 E5.41983
G1 X121.104 Y137.548 E5.48157
G1 X119.051 Y136.069 E5.56572
G1 X116.957 Y134.652 E5.64982
G1 X114.852 Y133.313 E5.73279
G1 X112.681 Y132.016 E5.81691
G1 X110.492 Y130.791 E5.90034
G1 X108.264 Y129.627 E5.98395
G1 X105.997 Y128.522 E6.06783
G1 X103.705 Y127.484 E6.15151
G1 X101.369 Y126.504 E6.23577
G1 X99.021 Y125.595 E6.31951
G1 X96.693 Y124.772 E6.40164
G1 X93.008 Y123.611 E6.53014
G1 X91.381 Y123.122 E6.58664
G1 X90.54 Y122.823 E6.61633
G1 X87.685 Y121.623 E6.71934
G1 X85.346 Y120.719 E6.80274
G1 X83.021 Y119.895 E6.88478
G1 X80.571 Y119.103 E6.97042
G1 X78.173 Y118.402 E7.05352
G1 X75.923 Y117.81 E7.1309
G1 X74.876 Y117.487 E7.16734
G1 X73.901 Y117.094 E7.20231
G1 X72.975 Y116.614 E7.237
G1 X72.339 Y116.217 E7.26193
G1 X72.004 Y115.99 E7.27539
G1 X71.222 Y115.408 E7.30782
G1 X70.497 Y114.759 E7.34018
G1 X69.854 Y114.076 E7.37138
G1 X69.632 Y113.817 E7.38272
G1 X69.04 Y113.046 E7.41506
G1 X68.537 Y112.258 E7.44615
G1 X68.168 Y111.567 E7.4722
G1 X67.632 Y110.465 E7.51296
G1 X66.953 Y108.974 E7.56745
G1 X66.62 Y108.134 E7.59751
G1 X66.289 Y106.994 E7.63699
G1 X66.192 Y106.539 E7.65246
G1 X66.055 Y105.685 E7.68123
G1 X65.964 Y104.32 E7.72673
G1 X66.003 Y103.194 E7.7642
G1 X66.122 Y102.266 E7.79532
G1 X66.29 Y101.466 E7.82251
G1 X66.509 Y100.642 E7.85087
G1 X66.626 Y100.276 E7.86365
G1 X66.978 Y99.369 E7.89601
G1 X67.408 Y98.494 E7.92843
G1 X67.912 Y97.665 E7.9607
G1 X68.36 Y97.017 E7.9869
G1 X68.97 Y96.257 E8.01932
G1 X69.615 Y95.583 E8.05035
G1 X70.227 Y95.033 E8.07771
G1 X70.991 Y94.43 E8.11009
M204 S2000
G1 F2400 E7.31009
G0 F7500 X77.457 Y107.076
G0 X77.718 Y107.389
G0 X130.351 Y140.261
M204 S500
G1 F2400 E8.11009
G1 F1500 X130.32 Y140.525 E8.11893
G1 X130.259 Y140.692 E8.12484
G1 X130.132 Y140.816 E8.13074
G1 X129.931 Y140.884 E8.1378
G1 X128.551 Y140.622 E8.18452
G1 X128.073 Y140.496 E8.20096
G1 X126.575 Y140.06 E8.25285
G1 X125.875 Y139.845 E8.27721
G1 X124.993 Y139.528 E8.30838
G1 X124.172 Y139.151 E8.33843
G1 X123.356 Y138.685 E8.36968
G1 X122.833 Y138.334 E8.39063
G1 X121.338 Y137.223 E8.45258
G1 X119.285 Y135.745 E8.53672
G1 X117.181 Y134.321 E8.62122
G1 X115.067 Y132.976 E8.70456
G1 X112.876 Y131.667 E8.78944
G1 X110.677 Y130.436 E8.87326
G1 X108.449 Y129.272 E8.95687
G1 X106.172 Y128.162 E9.04112
G1 X103.86 Y127.115 E9.12554
G1 X101.524 Y126.135 E9.2098
G1 X99.165 Y125.222 E9.29393
G1 X96.813 Y124.39 E9.37691
G1 X93.128 Y123.229 E9.50541
G1 X91.515 Y122.745 E9.56142
G1 X90.695 Y122.454 E9.59036
G1 X87.84 Y121.254 E9.69336
G1 X85.48 Y120.342 E9.77752
G1 X83.144 Y119.514 E9.85995
G1 X80.694 Y118.722 E9.94559
G1 X78.275 Y118.015 E10.02941
G1 X76.025 Y117.423 E10.10679
G1 X75.026 Y117.116 E10.14155
G1 X74.051 Y116.723 E10.17652
G1 X73.187 Y116.275 E10.20889
G1 X72.563 Y115.886 E10.23334
G1 X72.242 Y115.669 E10.24623
G1 X71.488 Y115.109 E10.27747
G1 X70.788 Y114.485 E10.30866
G1 X70.157 Y113.815 E10.33927
G1 X69.949 Y113.573 E10.34988
G1 X69.377 Y112.83 E10.38107
G1 X68.89 Y112.069 E10.41112
G1 X68.528 Y111.392 E10.43665
G1 X67.996 Y110.299 E10.47708
G1 X67.325 Y108.827 E10.53089
G1 X66.992 Y107.987 E10.56094
G1 X66.68 Y106.91 E10.59824
G1 X66.587 Y106.475 E10.61303
G1 X66.454 Y105.658 E10.64056
G1 X66.364 Y104.333 E10.68474
G1 X66.4 Y103.244 E10.72098
G1 X66.514 Y102.348 E10.75102
G1 X66.677 Y101.568 E10.77752
G1 X66.89 Y100.763 E10.80522
G1 X66.999 Y100.42 E10.81719
G1 X67.337 Y99.545 E10.84838
G1 X67.75 Y98.702 E10.87961
G1 X68.254 Y97.873 E10.91188
G1 X68.46 Y97.585 E10.92365
G1 X68.672 Y97.267 E10.93636
G1 X69.259 Y96.534 E10.9676
G1 X69.904 Y95.86 E10.99863
G1 X70.475 Y95.347 E11.02416
G1 X71.211 Y94.764 E11.05539
G1 X71.995 Y94.249 E11.08658
G1 X72.778 Y93.826 E11.11618
G1 X73.763 Y93.348 E11.1526
G1 X103.572 Y79.449 E12.24653
G1 X104.318 Y79.113 E12.27374
G1 X105.205 Y78.76 E12.30549
G1 X106.101 Y78.492 E12.3366
G1 X106.939 Y78.312 E12.36511
G1 X107.832 Y78.178 E12.39514
G1 X108.989 Y78.117 E12.43368
G1 X109.683 Y78.141 E12.45677
G1 X110.384 Y78.209 E12.4802
G1 X111 Y78.283 E12.50083
G1 X112.215 Y78.555 E12.54224
G1 X112.624 Y78.681 E12.55648
G1 X113.224 Y78.897 E12.57769
G1 X114.085 Y79.272 E12.60892
G1 X114.902 Y79.717 E12.63987
G1 X115.368 Y80.015 E12.65826
G1 X115.702 Y80.241 E12.67168
G1 X116.45 Y80.798 E12.7027
G1 X116.884 Y81.174 E12.72179
G1 X119.226 Y83.26 E12.82611
G1 X121.179 Y84.895 E12.91082
G1 X123.152 Y86.454 E12.99446
G1 X125.189 Y87.972 E13.07895
G1 X127.263 Y89.427 E13.16322
G1 X129.368 Y90.819 E13.24715
G1 X131.515 Y92.152 E13.33121
G1 X133.676 Y93.411 E13.41439
G1 X135.949 Y94.649 E13.50048
G1 X138.154 Y95.772 E13.58278
G1 X140.445 Y96.857 E13.66709
G1 X143.607 Y98.229 E13.78173
G1 X144.412 Y98.561 E13.81069
G1 X144.784 Y98.728 E13.82426
G1 X145.535 Y99.09 E13.85199
G1 X146.311 Y99.552 E13.88202
G1 X147.166 Y100.176 E13.91723
G1 X147.493 Y100.441 E13.93123
G1 X148.169 Y101.039 E13.96125
G1 X148.839 Y101.747 E13.99367
G1 X149.407 Y102.467 E14.02417
G1 X149.626 Y102.776 E14.03677
G1 X149.847 Y103.111 E14.05011
G1 X150.436 Y104.162 E14.09019
G1 X151.44 Y106.29 E14.16845
G1 X152.567 Y108.525 E14.2517
G1 X153.261 Y109.796 E14.29986
G1 X153.971 Y111.128 E14.35007
G1 X154.075 Y111.352 E14.35828
G1 X154.255 Y111.702 E14.37137
G1 X154.477 Y112.223 E14.39021
G1 X155.436 Y114.739 E14.47976
G1 X156.401 Y117.075 E14.56383
G1 X157.074 Y118.561 E14.61808
G1 X157.667 Y119.907 E14.667
G1 X157.676 Y119.951 E14.6685
G1 X157.849 Y120.343 E14.68275
G1 X158.089 Y121.023 E14.70673
G1 X158.299 Y121.687 E14.7299
G1 X158.613 Y122.737 E14.76635
G1 X158.803 Y123.419 E14.78989
G1 X159.004 Y124.238 E14.81794
G1 X159.146 Y125.166 E14.84917
G1 X159.206 Y126.102 E14.88036
G1 X159.185 Y127.005 E14.91041
G1 X159.075 Y127.976 E14.94291
G1 X158.843 Y129.063 E14.97988
G1 X158.628 Y129.863 E15.00743
G1 X158.361 Y130.795 E15.03967
G1 X157.996 Y131.97 E15.0806
G1 X157.648 Y132.843 E15.11185
G1 X157.225 Y133.681 E15.14308
G1 X156.729 Y134.477 E15.17427
G1 X156.164 Y135.228 E15.20553
G1 X155.519 Y135.941 E15.23751
G1 X154.702 Y136.764 E15.27608
G1 X153.565 Y137.851 E15.32839
G1 X152.876 Y138.436 E15.35846
G1 X152.081 Y138.999 E15.39086
G1 X151.269 Y139.469 E15.42206
G1 X150.419 Y139.866 E15.45327
G1 X149.56 Y140.179 E15.48367
G1 X148.573 Y140.468 E15.51788
G1 X147.467 Y140.77 E15.55601
G1 X146.671 Y140.976 E15.58336
G1 X145.976 Y141.131 E15.60704
G1 X145.082 Y141.26 E15.63709
G1 X143.989 Y141.315 E15.67348
G1 X143.096 Y141.276 E15.70321
G1 X140.012 Y141.045 E15.80608
G1 X137.48 Y140.933 E15.89037
G1 X134.957 Y140.892 E15.9743
G1 X131.519 Y140.949 E16.08866
G1 X131.345 Y140.912 E16.09458
G1 X131.204 Y140.804 E16.10049
G1 X131.112 Y140.562 E16.1091
G1 X131.108 Y140.294 E16.11801
M204 S2000
G0 F7500 X131.504 Y140.299
M204 S500
G1 F1500 X131.512 Y140.549 E16.12633
G1 X134.956 Y140.492 E16.2409
G1 X137.498 Y140.533 E16.32545
G1 X140.03 Y140.645 E16.40975
G1 X143.126 Y140.877 E16.51301
G1 X144.006 Y140.915 E16.54231
G1 X145.025 Y140.864 E16.57624
G1 X145.919 Y140.735 E16.60629
G1 X146.584 Y140.586 E16.62895
G1 X147.367 Y140.383 E16.65586
G1 X148.468 Y140.082 E16.69382
G1 X149.423 Y139.803 E16.72691
G1 X150.282 Y139.49 E16.75732
G1 X151.099 Y139.107 E16.78733
G1 X151.88 Y138.653 E16.81738
G1 X152.617 Y138.131 E16.84741
G1 X153.306 Y137.546 E16.87748
G1 X154.426 Y136.475 E16.92902
G1 X155.235 Y135.659 E16.96724
G1 X155.867 Y134.96 E16.99858
G1 X156.409 Y134.237 E17.02863
G1 X156.885 Y133.47 E17.05866
G1 X157.291 Y132.663 E17.0887
G1 X157.624 Y131.823 E17.11876
G1 X157.976 Y130.685 E17.15838
G1 X158.243 Y129.753 E17.19062
G1 X158.457 Y128.959 E17.21797
G1 X158.684 Y127.893 E17.25422
G1 X158.785 Y126.996 E17.28425
G1 X158.806 Y126.093 E17.31429
G1 X158.747 Y125.192 E17.34432
G1 X158.609 Y124.299 E17.37437
G1 X158.415 Y123.515 E17.40124
G1 X158.228 Y122.845 E17.42437
G1 X157.916 Y121.802 E17.46058
G1 X157.708 Y121.143 E17.48357
G1 X157.472 Y120.476 E17.5071
G1 X157.292 Y120.072 E17.52181
G1 X157.301 Y120.068 E17.52214
G1 X156.708 Y118.722 E17.57106
G1 X156.031 Y117.228 E17.62561
G1 X155.066 Y114.892 E17.70967
G1 X154.103 Y112.365 E17.79962
G1 X153.887 Y111.859 E17.81792
G1 X153.712 Y111.52 E17.83061
G1 X153.608 Y111.296 E17.83882
G1 X152.908 Y109.984 E17.88828
G1 X152.216 Y108.717 E17.9363
G1 X151.078 Y106.461 E18.02034
G1 X150.074 Y104.333 E18.0986
G1 X149.513 Y103.331 E18.13679
G1 X149.292 Y102.996 E18.15014
G1 X149.093 Y102.715 E18.16159
G1 X148.525 Y101.995 E18.19209
G1 X147.904 Y101.339 E18.22214
G1 X147.228 Y100.741 E18.25216
G1 X146.914 Y100.487 E18.26559
G1 X146.106 Y99.896 E18.29889
G1 X145.33 Y99.434 E18.32892
G1 X144.611 Y99.088 E18.35546
G1 X144.249 Y98.926 E18.36865
G1 X143.455 Y98.599 E18.39721
G1 X140.286 Y97.224 E18.51211
G1 X137.973 Y96.128 E18.59724
G1 X135.768 Y95.006 E18.67953
G1 X133.475 Y93.757 E18.76637
G1 X131.314 Y92.498 E18.84956
G1 X129.147 Y91.153 E18.93438
G1 X127.042 Y89.761 E19.01832
G1 X124.95 Y88.293 E19.10332
G1 X122.913 Y86.775 E19.18782
G1 X120.922 Y85.202 E19.27221
G1 X118.969 Y83.567 E19.35693
G1 X116.618 Y81.473 E19.46164
G1 X116.188 Y81.101 E19.48055
G1 X115.463 Y80.562 E19.5106
G1 X115.144 Y80.346 E19.52341
G1 X114.687 Y80.054 E19.54145
G1 X113.894 Y79.623 E19.57147
G1 X113.065 Y79.264 E19.60152
G1 X112.489 Y79.057 E19.62187
G1 X112.098 Y78.937 E19.63548
G1 X110.913 Y78.673 E19.67586
G1 X109.669 Y78.541 E19.71747
G1 X108.975 Y78.517 E19.74056
G1 X107.891 Y78.574 E19.77667
G1 X106.998 Y78.708 E19.8067
G1 X106.185 Y78.883 E19.83436
G1 X105.32 Y79.143 E19.8644
G1 X104.482 Y79.478 E19.89442
G1 X103.736 Y79.814 E19.92163
G1 X73.932 Y93.711 E21.01538
G1 X72.953 Y94.186 E21.05157
G1 X72.185 Y94.601 E21.08061
G1 X71.431 Y95.098 E21.11064
G1 X70.724 Y95.66 E21.14068
G1 X70.172 Y96.157 E21.16539
G1 X69.548 Y96.81 E21.19543
G1 X68.985 Y97.516 E21.22546
G1 X68.785 Y97.818 E21.23751
G1 X68.596 Y98.081 E21.24828
G1 X68.092 Y98.91 E21.28055
G1 X67.696 Y99.721 E21.31057
G1 X67.372 Y100.564 E21.3406
G1 X67.277 Y100.865 E21.3511
G1 X67.064 Y101.67 E21.3788
G1 X66.911 Y102.398 E21.40354
G1 X66.797 Y103.294 E21.43358
G1 X66.764 Y104.346 E21.46859
G1 X66.853 Y105.63 E21.5114
G1 X66.982 Y106.41 E21.53769
G1 X67.071 Y106.826 E21.55184
G1 X67.364 Y107.84 E21.58695
G1 X67.697 Y108.68 E21.617
G1 X68.36 Y110.133 E21.67012
G1 X68.888 Y111.217 E21.71023
G1 X69.227 Y111.853 E21.7342
G1 X69.714 Y112.614 E21.76425
G1 X70.266 Y113.329 E21.79429
G1 X70.46 Y113.554 E21.80417
G1 X71.079 Y114.21 E21.83417
G1 X71.754 Y114.81 E21.86421
G1 X72.48 Y115.347 E21.89424
G1 X72.787 Y115.554 E21.90656
G1 X73.399 Y115.936 E21.93055
G1 X74.201 Y116.352 E21.9606
G1 X75.176 Y116.745 E21.99557
G1 X76.127 Y117.036 E22.02864
G1 X78.377 Y117.628 E22.10603
G1 X80.817 Y118.341 E22.19057
G1 X83.267 Y119.133 E22.27621
G1 X85.614 Y119.965 E22.35904
G1 X87.995 Y120.885 E22.44393
G1 X90.85 Y122.085 E22.54694
G1 X91.649 Y122.368 E22.57513
G1 X93.248 Y122.847 E22.63065
G1 X96.933 Y124.008 E22.75915
G1 X99.309 Y124.849 E22.84298
G1 X101.679 Y125.766 E22.9275
G1 X104.015 Y126.746 E23.01176
G1 X106.347 Y127.802 E23.0969
G1 X108.624 Y128.912 E23.18116
G1 X110.872 Y130.087 E23.26552
G1 X113.071 Y131.318 E23.34934
G1 X115.282 Y132.639 E23.43501
G1 X117.405 Y133.99 E23.5187
G1 X119.519 Y135.421 E23.60361
G1 X121.572 Y136.898 E23.68773
G1 X123.072 Y138.013 E23.74989
G1 X123.555 Y138.338 E23.76925
G1 X124.339 Y138.787 E23.7993
G1 X125.16 Y139.164 E23.82935
G1 X126.01 Y139.468 E23.85938
G1 X126.693 Y139.678 E23.88314
G1 X128.185 Y140.112 E23.93482
G1 X128.653 Y140.235 E23.95092
G1 X129.923 Y140.475 E23.9939
G1 X129.955 Y140.221 E24.00242
M204 S2000
G1 F2400 E23.20242
G0 F7500 X98.123 Y106.342
G0 X94.637 Y103.555
M204 S500
G1 F2400 E24.00242
G1 F1500 X97.221 Y102.831 E24.09167
G1 X99.805 Y103.555 E24.18093
G1 X101.669 Y105.523 E24.27108
G1 X102.392 Y107.999 E24.35687
G1 X101.668 Y110.585 E24.44619
G1 X99.805 Y112.448 E24.53382
G1 X97.219 Y113.172 E24.62314
